src/sym-qc-s.svg

<svg width="32" height="32" viewBox="0 0 32 32" fill="none" xmlns="http://www.w3.org/2000/svg">
<path d="M9.24525 0.0639648L2.78125 6.52797H8.02925C8.73325 3.96797 11.4852 0.543965 12.3172 0.0639648H9.24525Z" fill="black"/>
<path d="M15.4532 6.52797V0.0639648H13.9812C11.242 2.03516 9.68258 5.19463 9.24525 6.52797H15.4532Z" fill="black"/>
<path d="M16.7012 6.52797H22.9732C21.514 3.04636 19.1439 0.767965 18.1412 0.0639648H16.7012V6.52797Z" fill="black"/>
<path d="M24.1892 6.52797H29.2772L22.7492 0.0639648H19.8692C21.9428 1.95836 23.3892 4.60797 24.1892 6.52797Z" fill="black"/>
<path d="M22.8133 31.9999L29.2773 25.5359L24.0293 25.5359C23.3253 28.0959 20.5733 31.5199 19.7413 31.9999L22.8133 31.9999Z" fill="black"/>
<path d="M16.6053 25.5359L16.6053 31.9999L18.0773 31.9999C20.8165 30.0287 22.376 26.8692 22.8133 25.5359L16.6053 25.5359Z" fill="black"/>
<path d="M15.3573 25.5359L9.08535 25.5359C10.5445 29.0175 12.9147 31.2959 13.9173 31.9999L15.3573 31.9999L15.3573 25.5359Z" fill="black"/>
<path d="M7.86935 25.5359L2.78135 25.5359L9.30935 31.9999L12.1893 31.9999C10.1157 30.1055 8.66935 27.4559 7.86935 25.5359Z" fill="black"/>
<path d="M11.389 24.499H13.48L12.783 21.898C13.123 21.7734 13.4404 21.6034 13.735 21.388C14.0297 21.1614 14.2734 20.895 14.466 20.589C14.67 20.2717 14.806 19.9374 14.874 19.586C14.9534 19.2234 14.993 18.8607 14.993 18.498V13.007C14.993 12.599 14.942 12.1967 14.84 11.8C14.7494 11.4034 14.5794 11.0464 14.33 10.729C14.0807 10.4004 13.7804 10.134 13.429 9.93002C13.0777 9.71469 12.7037 9.56735 12.307 9.48802C11.9104 9.40869 11.508 9.36902 11.1 9.36902C10.692 9.36902 10.2897 9.40869 9.89303 9.48802C9.49636 9.56735 9.12236 9.71469 8.77103 9.93002C8.4197 10.134 8.11936 10.4004 7.87003 10.729C7.6207 11.0464 7.44503 11.4034 7.34303 11.8C7.25236 12.1967 7.20703 12.599 7.20703 13.007V18.498C7.20703 18.872 7.2467 19.246 7.32603 19.62C7.4167 19.9827 7.56403 20.3227 7.76803 20.64C7.98336 20.9574 8.24403 21.2294 8.55003 21.456C8.86736 21.6714 9.20736 21.8357 9.57003 21.949C9.9327 22.051 10.301 22.1077 10.675 22.119L11.389 24.499ZM11.1 20.249C10.862 20.249 10.624 20.215 10.386 20.147C10.1594 20.079 9.95536 19.96 9.77403 19.79C9.60403 19.62 9.47936 19.4217 9.40003 19.195C9.33203 18.9684 9.29803 18.736 9.29803 18.498V13.007C9.29803 12.769 9.33203 12.5367 9.40003 12.31C9.47936 12.072 9.60403 11.8737 9.77403 11.715C9.95536 11.545 10.1594 11.426 10.386 11.358C10.624 11.29 10.862 11.256 11.1 11.256C11.338 11.256 11.5704 11.29 11.797 11.358C12.035 11.426 12.239 11.545 12.409 11.715C12.5904 11.8737 12.715 12.072 12.783 12.31C12.8624 12.5367 12.902 12.769 12.902 13.007V18.498C12.902 18.736 12.8624 18.9684 12.783 19.195C12.715 19.4217 12.5904 19.62 12.409 19.79C12.239 19.96 12.035 20.079 11.797 20.147C11.5704 20.215 11.338 20.249 11.1 20.249Z" fill="black"/>
<path d="M20.861 22.136C21.337 22.136 21.8073 22.0794 22.272 21.966C22.7366 21.8527 23.156 21.6487 23.53 21.354C23.904 21.048 24.1873 20.674 24.38 20.232C24.584 19.79 24.686 19.331 24.686 18.855H22.595C22.595 19.127 22.51 19.382 22.34 19.62C22.17 19.858 21.949 20.0224 21.677 20.113C21.405 20.2037 21.133 20.249 20.861 20.249C20.623 20.249 20.3906 20.215 20.164 20.147C19.9373 20.079 19.739 19.96 19.569 19.79C19.399 19.62 19.2743 19.4217 19.195 19.195C19.127 18.9684 19.093 18.736 19.093 18.498V13.007C19.093 12.769 19.127 12.5367 19.195 12.31C19.2743 12.0834 19.399 11.885 19.569 11.715C19.739 11.545 19.9373 11.426 20.164 11.358C20.3906 11.29 20.623 11.256 20.861 11.256C21.133 11.256 21.405 11.3014 21.677 11.392C21.949 11.4827 22.17 11.647 22.34 11.885C22.51 12.1117 22.595 12.3667 22.595 12.65H24.686C24.686 12.174 24.584 11.715 24.38 11.273C24.1873 10.831 23.904 10.4627 23.53 10.168C23.156 9.86202 22.7366 9.65235 22.272 9.53902C21.8073 9.42569 21.337 9.36902 20.861 9.36902C20.521 9.36902 20.181 9.39735 19.841 9.45402C19.5123 9.49935 19.195 9.59569 18.889 9.74302C18.583 9.87902 18.3053 10.0604 18.056 10.287C17.8066 10.5137 17.597 10.7744 17.427 11.069C17.2683 11.3637 17.155 11.6754 17.087 12.004C17.0303 12.3327 17.002 12.667 17.002 13.007V18.498C17.002 18.838 17.0303 19.1724 17.087 19.501C17.155 19.8297 17.2683 20.1414 17.427 20.436C17.597 20.7307 17.8066 20.9914 18.056 21.218C18.3053 21.4447 18.583 21.6317 18.889 21.779C19.195 21.915 19.5123 22.0057 19.841 22.051C20.181 22.1077 20.521 22.136 20.861 22.136Z" fill="black"/>
</svg>

<svg xmlns="http://www.w3.org/2000/svg" viewBox="0 0 32 32">
	<path
		d="M9.2.1L2.8 6.5H8c.7-2.6 3.5-6 4.3-6.5H9.2zm6.3 6.4V.1H14c-2.7 2-4.3 5.1-4.7 6.5h6.2zm1.2 0H23C21.5 3 19.2.7 18.2 0h-1.4v6.5zm7.5 0h5.1L22.8 0h-2.9c2 2 3.5 4.6 4.3 6.5zM22.8 32l6.5-6.5H24c-.7 2.6-3.5 6-4.3 6.5h3.1zm-6.2-6.5V32h1.5c2.7-2 4.3-5.1 4.7-6.5h-6.2zm-1.2 0H9.1c1.5 3.5 3.8 5.8 4.8 6.5h1.4v-6.5zm-7.5 0H2.8L9.3 32h2.9c-2.1-1.9-3.5-4.5-4.3-6.5zm3.5-1h2.1l-.7-2.6c.3-.1.7-.3 1-.5.3-.2.5-.5.7-.8.2-.3.3-.7.4-1 .1-.4.1-.7.1-1.1V13c0-.4-.1-.8-.2-1.2-.1-.4-.3-.8-.5-1.1-.2-.3-.5-.6-.9-.8-.4-.2-.7-.4-1.1-.4-.4-.1-.8-.1-1.2-.1s-.8 0-1.2.1c-.4.1-.8.2-1.1.4-.4.2-.7.5-.9.8-.2.3-.4.7-.5 1.1-.1.4-.1.8-.1 1.2v5.5c0 .4 0 .7.1 1.1.1.4.2.7.4 1 .2.4.4.6.8.9.3.2.7.4 1 .5.4.1.7.2 1.1.2l.7 2.3zm-.3-4.3c-.2 0-.5 0-.7-.1-.2-.1-.4-.2-.6-.4-.2-.2-.3-.4-.4-.6-.1-.2-.1-.5-.1-.7V13c0-.2 0-.5.1-.7.1-.2.2-.4.4-.6.2-.2.4-.3.6-.4.2-.1.5-.1.7-.1s.5 0 .7.1c.2.1.4.2.6.4.2.2.3.4.4.6.1.2.1.5.1.7v5.5c0 .2 0 .5-.1.7-.1.2-.2.4-.4.6-.2.2-.4.3-.6.4h-.7zm9.8 1.9c.5 0 .9-.1 1.4-.2.5-.1.9-.3 1.3-.6s.7-.7.8-1.1c.2-.4.3-.9.3-1.4h-2.1c0 .3-.1.5-.3.8-.2.2-.4.4-.7.5-.3.1-.5.1-.8.1-.2 0-.5 0-.7-.1-.2-.1-.4-.2-.6-.4-.2-.2-.3-.4-.4-.6-.1-.2-.1-.5-.1-.7V13c0-.2 0-.5.1-.7.1-.2.2-.4.4-.6s.4-.3.6-.4c.2-.1.5-.1.7-.1.3 0 .5 0 .8.1.3.1.5.3.7.5.2.2.3.5.3.8h2.1c0-.5-.1-.9-.3-1.4-.2-.4-.5-.8-.8-1.1-.4-.3-.8-.5-1.3-.6-.5-.1-.9-.2-1.4-.2-.3 0-.7 0-1 .1-.3 0-.6.1-1 .3-.3.1-.6.3-.8.5-.2.2-.5.5-.6.8-.2.3-.3.6-.3.9-.2.4-.2.8-.2 1.1v5.5c0 .3 0 .7.1 1l.3.9c.2.3.4.6.6.8.2.2.5.4.8.6.3.1.6.2 1 .3h1.1z" />
</svg>
